X: 97
T: Le connois-tu ma chère Eléonore
C: Maria Szymanowska
%%abc-version 2.0
%%abcx-abcm2ps-target-version 5.9.1 (29 Sep 2008)
%%abc-creator hum2abc beta
%%abcx-conversion-date 2021/10/04 07:38:39
%%abc-edited-by Kamil Watkowski
%%abcx-initial-encoding-date 2021-08-09
%%humdrum-veritas 4231893806
%%humdrum-veritas-data 207369840
%%linebreak <none>
%%barnumbers 0
L: 1/16
M: 2/4
N: Derived from pl-kozmzk--mzk-m-33--005_szymanowska-maria--le-connois-tu-ma-chere-eleonore.krn
V: 1 clef=treble
V: 2 clef=treble
V: 3 clef=bass
K: G
[V:1] z8 | 
[V:2] z B,DG z B,DG | 
[V:3] [G,2G,,2] z2 [d2B2] z2 | 
[V:1] z8 | 
[V:2] z B,DG z B,DG | 
[V:3] [G,2G,,2] z2 [g2B2] z2 | 
[V:1] z8 | 
[V:2] z CEG z CEG | 
[V:3] [C,2C,,2] z2 [e2c2] z2 | 
[V:1] z8 | 
[V:2] z _B,EG z B,EG | 
[V:3] [^C,2^C,,2] z2 [g2_B2] z2 | 
[V:1] z8 | 
[V:2] z =B,DG z B,DG | 
[V:3] [D,2D,,2] z2 [d2=B2] z2 | 
[V:1] z8 | 
[V:2] z CDF z CDF | 
[V:3] [D,2D,,2] z2 [d2C2] z2 | 
[V:1] z8 | 
[V:2] z B,DG z B,DG | 
[V:3] [G,2G,,2] z2 [d2B2] z2 | 
[V:1] z2 D2 E2 D2 | 
[V:2] z CDA z CDA | 
[V:3] [F,2F,,2] z2 [d2c2] z2 | 
[V:1] D6G2 | 
[V:2] z B,DG z B,DG | 
[V:3] [G,2G,,2] z2 [d2B2] z2 | 
[V:1] F2 d2 c2 A2 | 
[V:2] z CDF z CDF | 
[V:3] [D,2D,,2] z2 [d2c2] z2 | 
[V:1] G4D4 | 
[V:2] z B,DG z B,DG | 
[V:3] [G,2G,,2] z2 [d2B2] z2 | 
[V:1] z2 D2 {/F} E2 D2 | 
[V:2] z CDA z CDA | 
[V:3] [F,2F,,2] z2 [d2c2] z2 | 
[V:1] D6G2 | 
[V:2] z B,DG z B,DG | 
[V:3] [G,2G,,2] z2 [d2B2] z2 | 
[V:1] F2 c2 B2 ^D2 | 
[V:2] z A,B,F z A,B,F | 
[V:3] [B,,2B,,,2] z2 [B2A2] z2 | 
[V:1] E8 | 
[V:2] z G,B,E z G,B,E | 
[V:3] [E,2E,,2] z2 [B2G2] z2 | 
[V:1] z2 E2 F2 G2 | 
[V:2] z G,^CE z G,CE | 
[V:3] [A,,2A,,,2] z2 [A2G2] z2 | 
[V:1] A6F2 | 
[V:2] z F,A,D z F,A,D | 
[V:3] [D,2D,,2] z2 [A2F2] z2 | 
[V:1] E2 E2 F2 G2 | 
[V:2] z G,A,E z G,A,E | 
[V:3] [^C,2^C,,2] z2 [A2G2] z2 | 
[V:1] {/FG}A4F4 | 
[V:2] z F,A,D z F,A,D | 
[V:3] [D,2D,,2] z2 [A2F2] z2 | 
[V:1] z2 E2 F2 G2 | 
[V:2] z G,A,E z G,A,E | 
[V:3] [^C,2^C,,2] z2 [A2G2] z2 | 
[V:1] A2F2!accent!d4- | 
[V:2] z F,A,D z F,A,D | 
[V:3] [D,2D,,2] z2 [A2F2] z2 | 
[V:1] d2B2 G2 E2 | 
[V:2] z G,B,E z G,B,E | 
[V:3] [G,,2G,,,2] z2 [B2G2] z2 | 
[V:1] D4F2 E2 | 
[V:2] z F,A,D z G,A,^C | 
[V:3] A,,4A,,,4 | 
[V:1] D2 A2 B2 c2 | 
[V:2] z F,A,D z F,A,D | 
[V:3] [D,2D,,2] z2 [c2A2] z2 | 
[V:1] d4B4 | 
[V:2] z B,DG z B,DG | 
[V:3] [G,2G,,2] z2 [d2B2] z2 | 
[V:1] z2 A2 B2 c2 | 
[V:2] z CDA z CDA | 
[V:3] [F,2F,,2] z2 [d2c2] z2 | 
[V:1] B2 z2!accent!g4- | 
[V:2] [G2D2B,2] z2[g4^c4_B4G4]- | 
[V:3] [G,2G,,2] z2[_E,4_E,,4]- | 
[V:1] g2_e2 d2 ^c2 | 
[V:2] [g8c8B8G8] | 
[V:3] [E,8E,,8] | 
[V:1] d8- | 
[V:2] z B,DG z B,DG | 
[V:3] [D,2D,,2] z2 [d2B2] z2 | 
[V:1] d2c2A2 B2 | 
[V:2] z CDF z CDF | 
[V:3] [D,2D,,2] z2 [d2c2] z2 | 
[V:1] G4z4 | 
[V:2] z G,B,D GBdg | 
[V:3] G,,4z2 [B,2B,,2] | 
[V:1] z8 | 
[V:2] ^deAa ^efBb | 
[V:3] z2 [C2C,2] z2 [D2D,2] | 
[V:1] z8 | 
[V:2] fgcc' ^gadd' | 
[V:3] z2 [E2E,2] z2 [F2F,2] | 
[V:1] z8 |[1 
[V:2] bg'^ag' bg'^c'g' | 
[V:3] [G2G,2][^C2^C,2] [D2D,2][_E2_E,2] | 
[V:1] z8 | 
[V:2] z g'd'b gdBG | 
[V:3] [D8D,8] | 
[V:1] z8 ||[2 
[V:2] [d8c8A8F8] ||  
[V:3] z D,F,A, DCA,B, ||  
[V:1] z8 | 
[V:2] z G,B,D GBdg | 
[V:3] G,4z2 [B,2B,,2] | 
[V:1] z8 | 
[V:2] ^deAa ^efBb | 
[V:3] z2 [C2C,2] z2 [D2D,2] | 
[V:1] z8 | 
[V:2] fgcc' ^gadd' | 
[V:3] z2 [E2E,2] z2 [F2F,2] | 
[V:1] z8 | 
[V:2] bg'^ag' bg'^c'g' | 
[V:3] [G2G,2][^C2^C,2] [D2D,2][_E2_E,2] | 
[V:1] z8 | 
[V:2] z g'd'b gdBG | 
[V:3] [D8D,8] | 
[V:1] z8 | 
[V:2] [d8c8A8F8] | 
[V:3] z D,F,A, DCA,B, | 
[V:1] z8 | 
[V:2] z G,B,D GBdf | 
[V:3] .G,2 z2z4 | 
[V:1] !fermata!z8 |]  
[V:2] g4!fermata!z4 |]  
[V:3] !fermata!z8 |]  


